X:006
T:Ballinasloe Fair (reel)  
B:CRE3.089 (Aonach BhÃÂÃÂÃÂÃÂ©al ÃÂÃÂÃÂÃÂtha na Sluaighe)
F:file ID: cre.3/006ball_f
R:reel
Q:180
M:C
L:1/8
K:Am
A2AB cBcA|G^FGA GECE|A2AB cBca|gedB (3cBA dB|
"5"A3B cBcA|G2G^F EGCE|A2AB cBca|gedB dce^f||
"9"gccg gcac|gc~c2 Bcd^f|gcc2 agab|gedB cde^f|
"13"gc~c2 ac~c2|gc~c2 B3c|AGAB cBca|gedB cde^f|
"17"g2g^f gbaf|gc~c2 Bcd^f|gc~c2 agab|gedB cde^f|
"21"gc~c2 ac~c2|gc~c2 B3c|AGAB cBca|gedB c4 |]

%%%

